MonoIcons/scalable/status/call-incoming-symbolic.svg

<?xml version="1.0" encoding="UTF-8"?>
<svg height="16px" viewBox="0 0 16 16" width="16px" xmlns="http://www.w3.org/2000/svg">
    <g fill="#2e3436">
        <path d="m 5.003906 2 c 0.554688 0 1 0.445312 1 1 v 3 c 0 0.554688 -0.445312 1 -1 1 h -0.710937 c 0.671875 2.265625 2.445312 4.042969 4.710937 4.710938 v -0.710938 c 0 -0.554688 0.449219 -1 1 -1 h 3 c 0.554688 0 1 0.445312 1 1 v 1.5 c 0 1.378906 -1.117187 2.5 -2.5 2.5 h -0.5 c -5.503906 0 -10 -4.496094 -10 -10 v -0.5 c 0 -1.378906 1.121094 -2.5 2.5 -2.5 z m 0 0"/>
        <path d="m 9 1 c -0.550781 0 -1 0.449219 -1 1 v 6 h 6 c 0.550781 0 1 -0.449219 1 -1 s -0.449219 -1 -1 -1 h -2.585938 l 4.292969 -4.292969 c 0.390625 -0.390625 0.390625 -1.023437 0 -1.414062 c -0.1875 -0.1875 -0.441406 -0.292969 -0.707031 -0.292969 s -0.519531 0.105469 -0.707031 0.292969 l -4.292969 4.292969 v -2.585938 c 0 -0.550781 -0.449219 -1 -1 -1 z m 0 0"/>
    </g>
</svg>

<svg width="16" height="16" viewBox="0 0 16 16" fill="none" xmlns="http://www.w3.org/2000/svg">
<path d="M5.00391 2C5.55859 2 6.00391 2.44531 6.00391 3V6C6.00391 6.55469 5.55859 7 5.00391 7H4.29297C4.96484 9.26562 6.73828 11.043 9.00391 11.7109V11C9.00391 10.4453 9.45312 10 10.0039 10H13.0039C13.5586 10 14.0039 10.4453 14.0039 11V12.5C14.0039 13.8789 12.8867 15 11.5039 15H11.0039C5.5 15 1.00391 10.5039 1.00391 5V4.5C1.00391 3.12109 2.125 2 3.50391 2H5.00391Z" fill="#2E3436"/>
<path d="M9 1C8.44922 1 8 1.44922 8 2V8H14C14.5508 8 15 7.55078 15 7C15 6.44922 14.5508 6 14 6H11.4141L15.707 1.70703C16.0977 1.31641 16.0977 0.683594 15.707 0.292969C15.5195 0.105469 15.2656 0 15 0C14.7344 0 14.4805 0.105469 14.293 0.292969L10 4.58594V2C10 1.44922 9.55078 1 9 1V1Z" fill="#2E3436"/>
</svg>
